X: 411
T:Donegal Reel
M:C|
L:1/8
R:Reel
Z:Kevin Gow
K:D
~D3E ~F3A | B~F3 BFAF | EDEF GFGA | B/c/d AF EGFE |!
~D3E ~F3A | B~F3 A2 de | (3fgf (3efe dBAG | (3FGF (3EFE D3Z:|!
defg afdf | afdf a2gf | edef gfed | B/c/d ef gafe |!
defg afdf | afdf abge |  (3fgf (3efe dBAG | (3FGF (3EFE D3Z:|!
<end>
<start>
